svg/regular/bx-detail.svg

<svg xmlns="http://www.w3.org/2000/svg" width="24" height="24"><path d="M20 3H4c-1.103 0-2 .897-2 2v14c0 1.103.897 2 2 2h16c1.103 0 2-.897 2-2V5c0-1.103-.897-2-2-2zM4 19V5h16l.002 14H4z"/><path d="M6 7h12v2H6zm0 4h12v2H6zm0 4h6v2H6z"/></svg>

<svg xmlns="http://www.w3.org/2000/svg" width="24" height="24" viewBox="0 0 24 24"><path d="M20,3H4C2.897,3,2,3.897,2,5v14c0,1.103,0.897,2,2,2h16c1.103,0,2-0.897,2-2V5C22,3.897,21.103,3,20,3z M4,19V5h16 l0.002,14H4z"/><path d="M6 7H18V9H6zM6 11H18V13H6zM6 15H12V17H6z"/></svg>
